X: 370
T: Jiangjieshi zuie ge
%%abc-version 2.0
%%abcx-abcm2ps-target-version 5.9.1 (29 Sep 2008)
%%abc-creator hum2abc beta
%%abcx-conversion-date 2013/10/02 07:52:30
%%abc-edited-by Helmut Schaffrath
%%humdrum-veritas 1452446249
%%humdrum-veritas-data 745069996
%%continueall 1
%%barnumbers 0
L: 1/16
M: 2/4
K: F
c2 d c B2 G2 [I:setbarnb 1]| 
c2 d c B2 G2 | 
c2 d c B c B G | 
F G c2G4 | 
c2 d c B c B G | 
F G c2 G A G F | 
D2 G G F2 E D | 
C2> F2C4 | 
G B G F G B G F | 
d2> G2 F2 E D | 
C2> F2C4 |]  



